X:7176
T:The Oyster Girl
O:england
M:6/8
L:1/8
K:G
ded B2G|A2F D2D|GFG BGB|d2c A3|ded Bdg|f2e c2e|d2B cBA|G6||Bcd Bcd|e2c e
dc|ABc ABc|d2B dcB|ded Bdg|f2e c2e|d2B cBA|G6||


